X: 1181
T: Miss Graham of Inchbrakie's Strathspey
%R: strathspey
B: Niel Gow & Sons "A Collection of Strathspey Reels, etc." v.1 p.18 #1
Z: 2022 John Chambers <jc:trillian.mit.edu>
M: C
L: 1/8
K: Gm
% - - - - - - - - - -
% Voice 1 reformatted for 6 6-bar lines.
V: 1 staves=2
g |\
d<GTd>B d>GG<f | c<[AF]Tc>A c>FA<f |\
d<Gd>B d<GG<g | {g}f>d{d}c>A G2G :|\
d |\
g>a{ga}b>g a>fg>d | Tf>dc<f A<Fc>A |
g>ab<g a<fg<d | f<cf>A {A}G2G>d ||\
g>ab>g a>fg>d | Tf>dc<f A<Fc>A |\
G>BA>c B<dc<(g | f)>d{d}c>A G2G |]
% - - - - - - - - - -
% Voice 2 preserves the staff layout in the book.
V: 2 clef=bass middle=d
z | g2g2 g2g2 | f2f2 f2f2 | g2g2 g2g2 | d2d2 G2G :| z | g2g2 g2g2 | f2f2
f2f2 | g2g2 g2g2 | d2d2 G2G2 || g2g2 g2g2 | f2f2 f2f2 | G2A2 B2c2 | d2D2 G2G |]


